X:19
T:Rosestock, Holderblh...
R:
O:Deutschland
A:Schwbisches Tanzliedchen
S:
B:Frau Nachtigall (Straburg - 1928)
Z:<anamnese@laposte.net> -- http://anamnese.fr.st
N:p.50
M:3/4
L:1/4
Q:1/4=100
K:C
"C" e3/2 d/ c/E/ |"G7" A G/F/ D |"G7" A G/F/ D |"C" A G/E/ C | 
"C" e3/2 d/ c/E/ |"G7" A G/F/ D |"G7" G A B |"C" c2 z |
"G" d/ c/ d2 |"C" e/ d/ c2 |"G7" GAB |"C" c/ B/ c/ d/ e |
"G" f/ e/ d2 |"C" e/ d/ c2 |"G7" GAB |"C" c2 z |]
